!!!COM: Anon.
!!!OCL: Francis James Child
!!!OPR: The English and Scottish Popular Ballads
!!!OVM: Vol. 1
!!!ONB: Ballad No. 37, Tune No. 1
!!!ONM: No. 37
!!!PDT: 1882
!!!YEM: Public domain.
**kern
*M3/4
{8d
=1
8g
8a
4b-
8a
8g
=2
8f
8g
4d}
8r
!! Second phrase:
{8d
=3
8g
8a
4b-
8a
8g
=4
8b-
8cc
4dd}
8r
!! Third phase:
{8d
=5
8g
8a
4b-
8a
8g
=6
8f
8g
4d}
!! Fourth phrase:
{8g
8a
=7
8b-
8a
4g
8g
8f
=8
16d
16e
8f
4g}
8r
====
*-
!!!OCY: Britain; England
!!!PPP: Boston
!!!ODT: <1882
!!!AFR: folk song
!!!AST: monophony
!!!AMT: simple triple
!!!SCA: Child Collection
!!!AIN: vox
!!!EEV: 1.0
!!!RDT: 1987 June
!!!YER: 1994 August 10
!!!VTS: 652652838
